!!!COM: Schubert, Franz Peter
!!!CDT: 1797-1828
!!!OTL: Lachen und Weinen
!!!OPS: Opus 59
!!!ONM: No. 4
!!!SCT: DV 777
!!!YOR: Franz Schubert: Selected songs
!!!PPE: Max Friedlaender
!!!PSR: C.F. Peters 
!!!PSP: Frankfurt, London, New York
!!!PSD: n.d.
!!!PPG: pp.70-72
!!!ODT: 1823///
!!!ONB: Leading and trailing bars of rest have been deleted.
**kern
*M2/4
*MM[Etwas geschwind]
*A-:
*k[b-e-a-d-]
=1
(8cc
8ff)
8ee-
8ee-
=2
(8ee-
8dd-)
8cc
8cc
=3
(8b-
8dd-)
8cc
8b-
=4
4a-
8e-
8r
=5
(8cc
8ff)
8ee-
8ee-
=6
(8ee-
8dd-)
8cc
8cc
=7
(8b-
8dd-)
8cc
8b-
=8
4a-
8e-
8r
=9
2r
=10
4.dd-
8b-
=11
(8cc
8a-)
8g
8a-
=12
(8b-
[4.ee-
=13
4ee-)]
4r
=14
4r
8ee-
8ee-
=15
2ee-
=16
4ee-
4ee-
=17
2ff-
=18
4ee-
4r
=19
4.cc-
8cc-
=20
4ee-
8ee-
8ee-
=21
(4.a-
8b-)
=22
4cc-
4r
=23
4r;
8ccn
8cc
=24
(8dd-
8b-)
8a-
8g
=25
4ee-
8cc
8cc
=26
(8dd-
8b-)
8a-
8g
=27
4a-
4r
=28
2r
=29
2r
!! Continuing later.
=30
(8cc
8ff)
8ee-
8ee-
=31
(8ee-
8dd-)
8cc
8cc
=32
(8b-
8dd-)
8cc
8b-
=33
4a-
8e-
8r
=34
(8cc
8ff)
8ee-
8ee-
=35
(8ee-
8dd-)
8cc
8cc
=36
(8b-
8dd-)
8cc
8b-
=37
4a-
8e-
8r
=38
2r
=39
4.dd-
8b-
=40
(8cc-
8a-)
8g
8a-
=41
(8b-
[4.ee-
=42
4ee-)]
4r
=43
4r
8ee-
8ee-
=44
4ee-
8cc
8a-
=45
8a-
8dd-
8ee-
8ff
=46
4gg-
8cc
8cc
=47
(8ee-
8dd-)
4dd-
=48
2r;
=49
8.r
16b-
8b-
8cc
=50
(8dd-
8b-)
8a-
8g
=51
8.ee-
16cc
8b-
8cc
=52
(8dd-
8b-)
8a-
8g
=53
4a-
4r
==
*-
!!!ENC: David Huron
!!!EMD: Paul von Hippel updated this file in the following ways (1998/9/2,21-22/):
!!!EMD:  (1) changed the representation of slurs from curly braces to parentheses 
!!!EMD:  (2) changed freeform comments into reference records and tandem interpretations
!!!EMD:  (3) changed final barline from quadruple (====) to double (==)
!!!EMD:  (4) added key signatures, key designations, and tempi
!!!EEV: Version 2.0
